components/ui-node-icon/src/source/source.large.svg

<svg width="32" height="32" viewBox="0 0 32 32" fill="none" xmlns="http://www.w3.org/2000/svg">
  <path fill-rule="evenodd" clip-rule="evenodd" d="M9 2C6.79086 2 5 3.79086 5 6V25C5 27.2091 6.79086 29 9 29H18.124C15.6646 27.6353 14 25.012 14 22C14 17.5817 17.5817 14 22 14C23.8919 14 25.6304 14.6567 27 15.7546V6C27 3.79086 25.2091 2 23 2H9Z" fill="var(--tbl--colors--icons--source--secondary)"/>
  <path fill-rule="evenodd" clip-rule="evenodd" d="M22 30C26.4183 30 30 26.4183 30 22C30 17.5817 26.4183 14 22 14C17.5817 14 14 17.5817 14 22C14 26.4183 17.5817 30 22 30ZM21 21.4142V25C21 25.5523 21.4477 26 22 26C22.5523 26 23 25.5523 23 25V21.4142L23.2929 21.7071C23.6834 22.0976 24.3166 22.0976 24.7071 21.7071C25.0976 21.3166 25.0976 20.6834 24.7071 20.2929L22.7071 18.2929C22.5196 18.1054 22.2652 18 22 18C21.7348 18 21.4804 18.1054 21.2929 18.2929L19.2929 20.2929C18.9024 20.6834 18.9024 21.3166 19.2929 21.7071C19.6834 22.0976 20.3166 22.0976 20.7071 21.7071L21 21.4142Z" fill="var(--tbl--colors--icons--source--primary)"/>
</svg>

<svg xmlns="http://www.w3.org/2000/svg" width="32" height="32" fill="none" viewBox="0 0 32 32">
  <path fill="var(--tbl--colors--icons--source--secondary)" fill-rule="evenodd" d="M9 2a4 4 0 0 0-4 4v19a4 4 0 0 0 4 4h9.124A8 8 0 1 1 27 15.755V6a4 4 0 0 0-4-4H9Z" clip-rule="evenodd"/>
  <path fill="var(--tbl--colors--icons--source--primary)" fill-rule="evenodd" d="M22 30a8 8 0 1 0 0-16 8 8 0 0 0 0 16Zm-1-8.586V25a1 1 0 1 0 2 0v-3.586l.293.293a1 1 0 0 0 1.414-1.414l-2-2a1 1 0 0 0-1.414 0l-2 2a1 1 0 0 0 1.414 1.414l.293-.293Z" clip-rule="evenodd"/>
</svg>
